X: 4122
T: Mrs Chisholm of Chisholm's    Strathspey
C: by Niel Gow
%R: strathspy
B: Niel Gow & Sons "A Fourch Collection of Strathspey Reels, etc." v.4 p.11 #1
Z: 2022 John Chambers <jc:trillian.mit.edu>
M: C
L: 1/8
K: A
% - - - - - - - - - -
V: 1 staves=2
c | A<Ac>A BFFB | A<Ac>A eAcA | d>Bc>A TB>AF<B | A>F EC A,2A,c || A<Ac>A BFFB |
A<Ac>A eAcA | d>Bc>A TB>AF<B | A>F EC A,2A, |][| f/g/ | a<ef>c TB>A Ff/g/ | a>ef>c ea {f}ed/c/ | d>Bc>A TB>AFB |
A>F EC A,2A,f/g/ || a>eTf>c TB>A Ff/g/ | a>ef>c Aa {f}ed/c/ | d<f c<a TB>A F>B | A>F EC A,2A, |]
% - - - - - - - - - -
% Voice 2 preserves the staff layout in the book.
V: 2 clef=bass middle=d
z |\
A2A2 B2B2 | A2A2 A2A2 | G2A2 B2B2 | A2E2 A2A2 || A2A2 B2B2 |
A2A2 A2A2 | G2A2 B2B2 | A2E2 A2A |][| z | a2a2 b2b2 | a2a2 c'2a2 | g2a2 b2b2 |
a2e2 A2Az || a2a2 b2b2 | a2a2 a2a2 | g2a2 d2d2 | c2e2 A2A |]


